icons/light/github-folder-expanded.svg

<svg width="16" height="16" viewBox="0 0 16 16" fill="none" xmlns="http://www.w3.org/2000/svg">
<path fill-rule="evenodd" clip-rule="evenodd" d="M13 3.5V6H15.151L15.634 6.629L13 13.629L12.516 14H8.74284C8.99647 13.6929 9.2174 13.3578 9.4003 13H12.133L14.5 7H8.74284C8.52467 6.73583 8.2823 6.49238 8.01914 6.27304L8.14602 6.146L8.50002 6H12V4H6.5L6.146 3.854L5.293 3H1V6.25716C0.62057 6.57052 0.283885 6.93379 0 7.33692V2.5L0.5 2H5.5L5.854 2.146L6.707 3H12.5L13 3.5Z" fill="#424242"/>
<g clip-path="url(#clip0_1_34)">
<path d="M4.5 6.75C4.00754 6.75 3.51991 6.847 3.06494 7.03545C2.60997 7.22391 2.19657 7.50013 1.84835 7.84835C1.14509 8.55161 0.75 9.50544 0.75 10.5C0.75 12.1575 1.82625 13.5637 3.315 14.0625C3.5025 14.0925 3.5625 13.9762 3.5625 13.875V13.2412C2.52375 13.4662 2.3025 12.7387 2.3025 12.7387C2.13 12.3037 1.88625 12.1875 1.88625 12.1875C1.545 11.955 1.9125 11.9625 1.9125 11.9625C2.2875 11.9887 2.48625 12.3487 2.48625 12.3487C2.8125 12.9187 3.36375 12.75 3.5775 12.66C3.61125 12.4162 3.70875 12.2512 3.81375 12.1575C2.98125 12.0637 2.1075 11.7412 2.1075 10.3125C2.1075 9.89625 2.25 9.5625 2.49375 9.29625C2.45625 9.2025 2.325 8.8125 2.53125 8.30625C2.53125 8.30625 2.84625 8.205 3.5625 8.68875C3.85875 8.60625 4.18125 8.565 4.5 8.565C4.81875 8.565 5.14125 8.60625 5.4375 8.68875C6.15375 8.205 6.46875 8.30625 6.46875 8.30625C6.675 8.8125 6.54375 9.2025 6.50625 9.29625C6.75 9.5625 6.8925 9.89625 6.8925 10.3125C6.8925 11.745 6.015 12.06 5.17875 12.1537C5.31375 12.27 5.4375 12.4987 5.4375 12.8475V13.875C5.4375 13.9762 5.4975 14.0962 5.68875 14.0625C7.1775 13.56 8.25 12.1575 8.25 10.5C8.25 10.0075 8.153 9.51991 7.96455 9.06494C7.77609 8.60997 7.49987 8.19657 7.15165 7.84835C6.80343 7.50013 6.39003 7.22391 5.93506 7.03545C5.48009 6.847 4.99246 6.75 4.5 6.75Z" fill="#424242"/>
</g>
<defs>
<clipPath id="clip0_1_34">
<rect width="9" height="9" fill="white" transform="translate(0 6)"/>
</clipPath>
</defs>
</svg>

<svg xmlns="http://www.w3.org/2000/svg" width="16" height="16" fill="none" xmlns:v="https://vecta.io/nano"><path fill-rule="evenodd" d="M13 3.5V6h2.151l.483.629-2.634 7-.484.371H8.743c.254-.307.475-.642.657-1h2.733L14.5 7H8.743c-.218-.264-.461-.508-.724-.727l.127-.127L8.5 6H12V4H6.5l-.354-.146L5.293 3H1v3.257a5.53 5.53 0 0 0-1 1.08V2.5L.5 2h5l.354.146.853.854H12.5l.5.5z" fill="#424242"/><g clip-path="url(#A)"><path d="M4.5 6.75a3.75 3.75 0 0 0-2.652 1.098A3.75 3.75 0 0 0 .75 10.5a3.76 3.76 0 0 0 2.565 3.563c.188.03.248-.086.248-.187v-.634c-1.039.225-1.26-.502-1.26-.502-.173-.435-.416-.551-.416-.551-.341-.232.026-.225.026-.225.375.026.574.386.574.386.326.57.878.401 1.091.311.034-.244.131-.409.236-.502-.832-.094-1.706-.416-1.706-1.845a1.45 1.45 0 0 1 .386-1.016c-.038-.094-.169-.484.038-.99 0 0 .315-.101 1.031.383.296-.083.619-.124.938-.124s.641.041.938.124c.716-.484 1.031-.383 1.031-.383.206.506.075.896.037.99a1.45 1.45 0 0 1 .386 1.016c0 1.432-.878 1.748-1.714 1.841.135.116.259.345.259.694v1.027c0 .101.06.221.251.188A3.76 3.76 0 0 0 8.25 10.5a3.75 3.75 0 0 0-1.098-2.652A3.75 3.75 0 0 0 4.5 6.75z" fill="#424242"/></g><defs><clipPath id="A"><path fill="#fff" transform="translate(0 6)" d="M0 0h9v9H0z"/></clipPath></defs></svg>
